X:82
T: Bőg a bárány az erdőbe...
M: 3/4
L: 1/4
K: F
f/g/ g<c | f/g/ g<c | 
f/g/ a<g | f/d/ c2 | 
f f<d | c f<f | d<B B2 
f f<d | d/c/ c>B |  G<F B2 
f f<d | c c>B | G<G G2 

